images_breeze_svg/cmd/32/mailmergesavedocuments.svg

<svg viewBox="0 0 32 32" xmlns="http://www.w3.org/2000/svg"><path d="m10 4-1 1-4 4-1 1v1 13h7v3h6v-1h-5v-12h6v-6h7v9h1v-5-1-4h-7v-3h-8zm1 1h7v2h-1l-1 1-4 4-1 1v1 9h-6v-12h6zm7 13v10h10v-2-1-4.71875l-2.28125-2.28125h-.03125-.6875-3-1zm1 1h1v3h5v-1-2h.28125l1.71875 1.71875v.28125 6h-1v-2h-6v2h-1zm2 0h2v2h-2zm0 7h4v1h-4z" fill="#4d4d4d"/></svg>

<?xml version="1.0" encoding="UTF-8" standalone="no"?>
<svg
   xmlns:dc="http://purl.org/dc/elements/1.1/"
   xmlns:cc="http://creativecommons.org/ns#"
   xmlns:rdf="http://www.w3.org/1999/02/22-rdf-syntax-ns#"
   xmlns:svg="http://www.w3.org/2000/svg"
   xmlns="http://www.w3.org/2000/svg"
   xmlns:sodipodi="http://sodipodi.sourceforge.net/DTD/sodipodi-0.dtd"
   xmlns:inkscape="http://www.inkscape.org/namespaces/inkscape"
   viewBox="0 0 32 32"
   version="1.1"
   id="svg6"
   sodipodi:docname="mailmergesavedocuments.svg"
   inkscape:export-filename="/home/rizmut/Dokumen/Rizmut/Github/libreoffice-style-breeze/images_breeze/cmd/32/mailmergesavedocuments.png"
   inkscape:export-xdpi="96"
   inkscape:export-ydpi="96"
   inkscape:version="0.92.4 (unknown)">
  <metadata
     id="metadata12">
    <rdf:RDF>
      <cc:Work
         rdf:about="">
        <dc:format>image/svg+xml</dc:format>
        <dc:type
           rdf:resource="http://purl.org/dc/dcmitype/StillImage" />
      </cc:Work>
    </rdf:RDF>
  </metadata>
  <defs
     id="defs10" />
  <sodipodi:namedview
     pagecolor="#ffffff"
     bordercolor="#666666"
     borderopacity="1"
     objecttolerance="10"
     gridtolerance="10"
     guidetolerance="10"
     inkscape:pageopacity="0"
     inkscape:pageshadow="2"
     inkscape:window-width="1360"
     inkscape:window-height="714"
     id="namedview8"
     showgrid="true"
     inkscape:zoom="10.429825"
     inkscape:cx="2.3398966"
     inkscape:cy="9.9689644"
     inkscape:window-x="0"
     inkscape:window-y="28"
     inkscape:window-maximized="1"
     inkscape:current-layer="svg6">
    <inkscape:grid
       type="xygrid"
       id="grid822" />
  </sodipodi:namedview>
  <path
     style="fill:#4d4d4d"
     d="M 10 4 L 9 5 L 5 9 L 4 10 L 4 11 L 4 24 L 11 24 L 11 27 L 17 27 L 17 26 L 12 26 L 12 14 L 18 14 L 18 8 L 25 8 L 25 17 L 26 17 L 26 12 L 26 11 L 26 7 L 19 7 L 19 4 L 11 4 L 10 4 z M 11 5 L 18 5 L 18 7 L 17 7 L 16 8 L 12 12 L 11 13 L 11 14 L 11 23 L 5 23 L 5 11 L 11 11 L 11 5 z M 18 18 L 18 28 L 28 28 L 28 26 L 28 25 L 28 20.28125 L 25.71875 18 L 25.6875 18 L 25 18 L 22 18 L 21 18 L 18 18 z M 19 19 L 20 19 L 20 22 L 25 22 L 25 21 L 25 19 L 25.28125 19 L 27 20.71875 L 27 21 L 27 27 L 26 27 L 26 25 L 20 25 L 20 27 L 19 27 L 19 19 z M 21 19 L 23 19 L 23 21 L 21 21 L 21 19 z M 21 26 L 25 26 L 25 27 L 21 27 L 21 26 z "
     id="path4" />
</svg>
